X: 1382
T: De Boatman Dance
C:Daniel Decatur Emmett (1815 -1904)
B: australian traditional tunes wiki
M:2/4
L:1/8
Q: 1/4=100
K:D
V:1 
B||"G"BB "D"AF|"G"BB "D"A>B|"G"BB "D"AF|AA F2|"G"BB "D"AF|"G"BB "D"A>B|"G"AA "D"A/A/F|AAF2||
"D"F>D EF|A3z|F>D "A7"EF|"D"D3z|FF EF/G/|AA DD/E/|FA/A/ "A7"EF/F/|"D"D3D||
||"G"d2dd|ed (BA)|"D"D/F/B/A/ FA|"A7"EF "D"Dz|"G"d2dd|ed (BA)|"D"D/F/B/A/ FA|"A7"EF "D"Dz||
% abcbook-tune_id 6342d53af2c18efa3bf4c3cf


% abcbook-boost 0
% abcbook-tablature 
% abcbook-transpose 
% abcbook-lastupdated 1665324362212
% abcbook-soundfonts 
% abcbook-repeats 1
% NFF Book 2019

